images/icons/google-drive.svg

<svg fill="none" height="24" viewBox="0 0 24 24" width="24" xmlns="http://www.w3.org/2000/svg" xmlns:xlink="http://www.w3.org/1999/xlink"><clipPath id="a"><path d="m0 0h24v24h-24z"/></clipPath><g clip-path="url(#a)"><path d="m1.46433 19.6563 1.05842 1.8282c.21993.3849.53608.6873.90722.9072l3.78006-6.5429h-7.560128c0 .4261.109966.8522.3298969 1.2371z" fill="#0066da"/><path d="m11.6499 8.15111-3.78008-6.54296c-.37113.21994-.68728.52234-.90721.90722l-6.9828111 12.09623c-.2158859.3766-.3296089.803-.3298969 1.2371h7.560128z" fill="#00ac47"/><path d="m19.8698 22.3917c.3712-.2199.6873-.5223.9073-.9072l.4398-.756 2.1031-3.6426c.2199-.3849.3299-.811.3299-1.2371h-7.5607l1.6088 3.1615z" fill="#ea4335"/><path d="m11.6498 8.15117 3.7801-6.54295c-.3712-.21993-.7973-.3299-1.2371-.3299h-5.08594c-.43986 0-.86598.12371-1.23711.3299z" fill="#00832d"/><path d="m16.0897 15.8488h-8.8797l-3.78007 6.5429c.37114.2199.79725.3299 1.23711.3299h13.96566c.4398 0 .8659-.1237 1.2371-.3299z" fill="#2684fc"/><path d="m19.8286 8.56348-3.4914-6.04811c-.2199-.38488-.5361-.68728-.9072-.90722l-3.7801 6.54296 4.4399 7.69759h7.5463c0-.4261-.1099-.8522-.3299-1.2371z" fill="#ffba00"/></g></svg>

<svg width="24" height="24" viewBox="0 0 24 24" fill="none" xmlns="http://www.w3.org/2000/svg">
<g clip-path="url(#clip0_1436_823)">
<path d="M1.46433 19.6563L2.52275 21.4845C2.74268 21.8694 3.05883 22.1718 3.42997 22.3917L7.21003 15.8488H-0.350098C-0.350098 16.2749 -0.240132 16.701 -0.0202011 17.0859L1.46433 19.6563Z" fill="#0066DA"/>
<path d="M11.6499 8.15111L7.86982 1.60815C7.49869 1.82809 7.18254 2.13049 6.96261 2.51537L-0.0202011 14.6116C-0.236087 14.9882 -0.34981 15.4146 -0.350098 15.8487H7.21003L11.6499 8.15111Z" fill="#00AC47"/>
<path d="M19.8698 22.3917C20.241 22.1718 20.5571 21.8694 20.7771 21.4845L21.2169 20.7285L23.32 17.0859C23.5399 16.701 23.6499 16.2749 23.6499 15.8488H16.0892L17.698 19.0103L19.8698 22.3917Z" fill="#EA4335"/>
<path d="M11.6498 8.15117L15.4299 1.60822C15.0587 1.38829 14.6326 1.27832 14.1928 1.27832H9.10686C8.667 1.27832 8.24088 1.40203 7.86975 1.60822L11.6498 8.15117Z" fill="#00832D"/>
<path d="M16.0897 15.8488H7.21L3.42993 22.3917C3.80107 22.6116 4.22718 22.7216 4.66704 22.7216H18.6327C19.0725 22.7216 19.4986 22.5979 19.8698 22.3917L16.0897 15.8488Z" fill="#2684FC"/>
<path d="M19.8286 8.56348L16.3372 2.51537C16.1173 2.13049 15.8011 1.82809 15.43 1.60815L11.6499 8.15111L16.0898 15.8487H23.6361C23.6361 15.4226 23.5262 14.9965 23.3062 14.6116L19.8286 8.56348Z" fill="#FFBA00"/>
</g>
<defs>
<clipPath id="clip0_1436_823">
<rect width="24" height="24" fill="white"/>
</clipPath>
</defs>
</svg>
